X:629
T:Miss Frances Robertson 
C:Joe Buchanan's Scottish Tome - Page 187.2
I:187 2
R:Reel
Z:Carl Allison
L:1/8
M:4/4
K:A
E2 |  "A"A2 ED C2 E2 | "A"Aceg aecB | "A"A2 ED "F#m"C2 c2 | "E7"BEGB dBGB |
"A"A2 ED C2 E2 |"A" Aceg aecB |"Bm7" D2 FA "E7"E2 GB | "A" A6 :|
ce |"A" agfe ^dece | A2 ce "A7"aecA |"Bm7" D2 FA "A"C2 EG | "Bm7"dcBA "E7"efge |
"A"agfe ^dece |"A" A2 ce "A7"aecA |"Bm7" D2 FA "E7"E2 GB | "A  D  A"A6 :|

